svg/fluentui-system-icons/ic_fluent_hand_draw_24_regular.svg

<svg width="24" height="24" viewBox="0 0 24 24" fill="none" xmlns="http://www.w3.org/2000/svg">
<path d="M19.4046 2.59778C19.7206 2.85061 20 3.23393 20 3.74999C20 4.53438 19.5008 5.04553 18.9323 5.34361C18.3872 5.62939 17.6737 5.78612 16.9222 5.88112C15.4712 6.06452 13.5774 6.04889 11.7372 6.0337L11.494 6.03171C9.53841 6.01598 7.66508 6.01058 6.28157 6.21514C5.58436 6.31822 5.09174 6.46457 4.79206 6.63824C4.52367 6.79376 4.50026 6.9082 4.5 6.99901L4.50096 7.00092C4.50573 7.01 4.52386 7.03932 4.5756 7.08438C4.68677 7.1812 4.89038 7.29686 5.21185 7.41092C5.85037 7.63747 6.74581 7.78694 7.69765 7.87905C7.79846 7.8888 7.89934 7.89787 8 7.90628V9.41121C7.85174 9.39953 7.70252 9.38653 7.55317 9.37207C6.5673 9.27668 5.52504 9.11365 4.71028 8.82457C4.30511 8.68082 3.90319 8.48788 3.59048 8.21555C3.26484 7.93196 3 7.52579 3 7.00055C3 6.21661 3.46222 5.67521 4.03997 5.3404C4.58795 5.02286 5.30627 4.84303 6.06218 4.73127C7.58492 4.50612 9.58659 4.51632 11.506 4.53176L11.6881 4.53324C13.5815 4.54866 15.386 4.56335 16.7341 4.39296C17.4357 4.30428 17.9331 4.1738 18.2357 4.01514C18.4299 3.91333 18.4818 3.83854 18.4954 3.79293C18.4884 3.78642 18.4793 3.77846 18.4675 3.76904C18.37 3.69101 18.1811 3.59148 17.8702 3.49253C17.2551 3.29675 16.3792 3.16904 15.4094 3.09209C13.8153 2.9656 12.1224 2.9857 11.2123 2.9965C11.0208 2.99877 10.864 3.00063 10.75 3.00063C10.3358 3.00063 9.99999 2.66484 10 2.25062C10 1.83641 10.3358 1.50063 10.75 1.50063C10.8486 1.50063 10.9907 1.4989 11.1684 1.49672C12.0616 1.4858 13.8532 1.4639 15.5281 1.59679C16.5271 1.67605 17.5418 1.81387 18.3251 2.06318C18.7135 2.18678 19.1008 2.3547 19.4046 2.59778ZM13.995 9.32949C13.9282 7.96966 13.098 7.00055 11.7494 7.00055C10.3421 7.00055 9.49939 8.05576 9.49939 9.50903V13.6768L9.24018 13.5973C8.04902 13.2495 7.11582 13.2297 6.41398 13.5806C5.46054 14.0573 4.97044 14.9127 4.99502 16.0213C5.0012 16.2998 5.16131 16.552 5.41079 16.6761L7.7737 17.8516L7.8711 17.9039L7.96499 17.9623L9.84872 19.2182L10.0421 19.3569C10.4812 19.6954 10.8337 20.1351 11.0685 20.6399L11.0976 20.7024L11.1769 20.8572C11.629 21.6611 12.5326 22.1133 13.4572 21.9806L15.8755 21.6336L16.0407 21.6036C16.8567 21.4238 17.5116 20.8034 17.7296 19.9872L18.7778 16.0641L18.8204 15.8846C19.1692 14.2087 18.1511 12.5326 16.4768 12.0853C16.3915 12.0625 16.3054 12.0432 16.2186 12.0275L13.9994 11.6245V9.50903L13.995 9.32949ZM11.0033 9.36691C11.037 8.77549 11.2894 8.50055 11.7494 8.50055C12.2447 8.50055 12.4994 8.81941 12.4994 9.50903V12.2506L12.507 12.3576C12.5522 12.6728 12.7944 12.9302 13.1154 12.9885L16.0204 13.5175L16.0896 13.5345C17.0234 13.784 17.5781 14.7431 17.3286 15.6769L16.2805 19.6L16.2438 19.7052C16.1413 19.9415 15.9226 20.1115 15.6624 20.1488L13.2442 20.4958L13.1356 20.5035C12.8479 20.5028 12.5816 20.3364 12.4576 20.0698L12.4285 20.0072L12.3066 19.763C11.9215 19.0416 11.3635 18.4252 10.6808 17.9701L8.79704 16.7143L8.62267 16.6058L8.4418 16.5086L6.53655 15.5608L6.575 15.4413C6.66458 15.2132 6.83079 15.0493 7.0848 14.9223C7.52208 14.7036 8.50287 14.8442 9.9635 15.4464C10.4572 15.65 10.9994 15.2871 10.9994 14.7531V9.50903L11.0033 9.36691Z" fill="#212121"/>
</svg>

<svg xmlns="http://www.w3.org/2000/svg" width="24" height="24"><path d="M19.405 2.598c.316.253.595.636.595 1.152 0 .784-.5 1.296-1.068 1.594-.545.285-1.258.442-2.01.537-1.45.184-3.345.168-5.185.153l-.243-.002c-1.956-.016-3.829-.021-5.212.183-.698.103-1.19.25-1.49.423-.268.156-.292.27-.292.361l.001.002a.332.332 0 0 0 .075.083c.11.097.314.213.636.327.638.226 1.534.376 2.486.468.1.01.201.019.302.027v1.505a25.077 25.077 0 0 1-.447-.039c-.986-.095-2.028-.258-2.843-.547-.405-.144-.807-.337-1.12-.61-.325-.283-.59-.69-.59-1.214 0-.784.462-1.326 1.04-1.66.548-.318 1.266-.498 2.022-.61 1.523-.225 3.525-.215 5.444-.2l.182.002c1.893.016 3.698.03 5.046-.14.702-.089 1.2-.22 1.502-.378.194-.102.246-.176.26-.222a.487.487 0 0 0-.028-.024c-.098-.078-.287-.178-.598-.276-.615-.196-1.49-.324-2.46-.4-1.595-.127-3.288-.107-4.198-.096L10.75 3a.75.75 0 0 1 0-1.5l.418-.004c.894-.011 2.685-.033 4.36.1 1 .08 2.014.217 2.797.466.389.124.776.292 1.08.535Zm-5.41 6.731c-.067-1.36-.897-2.328-2.246-2.328C10.342 7 9.5 8.056 9.5 9.509v4.168l-.259-.08c-1.191-.348-2.124-.367-2.826-.016-.953.476-1.444 1.332-1.419 2.44a.75.75 0 0 0 .416.655l2.363 1.176.097.052.094.058 1.884 1.256.193.139c.44.338.792.778 1.027 1.283l.029.062.079.155a2.25 2.25 0 0 0 2.28 1.124l2.418-.347.166-.03a2.25 2.25 0 0 0 1.689-1.617l1.048-3.923.042-.18a3.25 3.25 0 0 0-2.601-3.857L14 11.625V9.508l-.004-.18Zm-2.992.038c.034-.592.286-.866.746-.866.496 0 .75.318.75 1.008v2.742l.008.107a.75.75 0 0 0 .608.63l2.905.53.07.016a1.75 1.75 0 0 1 1.239 2.143L16.28 19.6l-.036.105a.75.75 0 0 1-.582.444l-2.418.347-.108.008a.75.75 0 0 1-.678-.434l-.03-.063-.121-.244a4.964 4.964 0 0 0-1.626-1.793l-1.884-1.256-.174-.108-.181-.097-1.905-.948.038-.12c.09-.228.256-.392.51-.519.437-.218 1.418-.078 2.878.524A.75.75 0 0 0 11 14.753V9.51l.004-.142Z"/></svg>
